lib/svgs/zhihu.svg

<?xml version="1.0" encoding="UTF-8"?>
<svg width="16px" height="16px" viewBox="0 0 16 16" version="1.1" xmlns="http://www.w3.org/2000/svg" xmlns:xlink="http://www.w3.org/1999/xlink">
    <!-- Generator: sketchtool 51.3 (57544) - http://www.bohemiancoding.com/sketch -->
    <title>brand/zhihu</title>
    <desc>Created with sketchtool.</desc>
    <defs></defs>
    <g id="Icons" stroke="none" stroke-width="1" fill="none" fill-rule="evenodd">
        <g id="Web" transform="translate(-435.000000, -1038.000000)" fill="#000000">
            <g id="brand/zhihu" transform="translate(435.000000, 1038.000000)">
                <path d="M5.54204821,8.7857891 L8.50315927,8.7857891 C8.50315927,7.96632383 8.30180725,7.67368977 8.18685408,7.64447132 L5.62829988,7.64447132 C5.65714856,7.58588457 5.74340023,5.74212517 5.77210173,4.13256292 L8.18685408,4.13256292 C8.24440426,3.51792651 8.10060242,2.99124514 7.8419946,2.96202669 L3.5585542,2.96202669 C3.61610438,2.69861108 3.67350736,2.40597702 3.78846053,2.08397467 C3.93226237,1.64494866 4.07606422,1.20607249 4.16231588,1.03046209 C4.10476571,0.971875338 3.98981255,1.00124363 3.73105754,1.08904883 C3.44360104,1.17685403 3.24239621,1.2645094 3.01234269,1.46948809 C2.86854085,1.58651175 2.75358769,1.76212215 2.66733602,1.93773256 C2.40858101,2.61080588 1.8623695,4.54222064 1.14380184,5.88851712 C2.26492635,5.80071192 2.81113786,5.15685705 2.9836412,4.63002584 C3.06989287,4.45441544 3.09859436,4.24958658 3.15614454,4.10334447 L4.65097722,4.10334447 C4.65097722,4.77641779 4.62212854,6.00554078 4.50717537,7.64447132 C3.21354753,7.64447132 2.60993303,7.61510302 1.89121818,7.61510302 C1.48866133,7.73227652 1.2874565,8.37598155 1.23005351,8.7857891 L1.25875501,8.7857891 L4.39222221,8.7857891 C4.30597054,9.40027568 4.27726905,9.72227803 4.04721553,10.6293987 C3.61610438,11.9756951 2.92609102,13.0292077 1.97746985,13.9656967 C1.71871485,14.2583307 1.37370817,14.5509648 1.02870149,14.8143804 C1,14.8435988 1,14.8435988 1,14.8729671 C1.31630518,15.1656012 2.46613119,14.8729671 2.6961847,14.7851619 C2.92609102,14.6973567 3.12729586,14.63877 3.29979919,14.4925279 C3.90356088,13.9656967 4.65097722,12.7951604 5.11093706,11.0392062 C6.83582325,13.0877945 7.20953142,13.702281 7.64064258,14.1998938 L7.69819275,14.1998938 C7.8419946,13.702281 7.92809908,12.8828158 7.75574293,12.4731581 L7.64064258,12.2683292 C6.80697457,11.2440351 6.80697457,11.2440351 5.8583534,10.2197409 C5.31214189,10.658767 5.19718873,10.7757906 5.19718873,10.7757906 C5.19718873,10.7757906 5.31214189,10.3075461 5.34084338,10.1027173 C5.48464523,9.57588608 5.48464523,9.31247047 5.54204821,8.7857891 L5.54204821,8.7857891 L5.54204821,8.7857891 M14.8274967,2.75704799 L9.36552877,2.75704799 C9.30797859,2.75704799 9.19302543,2.84485319 9.19302543,2.93265839 L9.19302543,13.3218418 C9.19302543,13.3804285 9.25057561,13.4682337 9.36552877,13.4682337 L10.2278983,13.4682337 C10.2854484,13.4682337 10.3717001,14.0535019 10.6017536,14.6681383 C11.8091298,13.8778914 12.3264926,13.5560389 12.5852476,13.4682337 L14.8274967,13.4682337 C14.9137483,13.4682337 14.9712985,13.409647 14.9712985,13.3218418 C14.9712985,6.38598004 15,10.0149121 15,2.90343994 C15,2.81563474 14.8850468,2.75704799 14.8274967,2.75704799 L14.8274967,2.75704799 L14.8274967,2.75704799 M13.8213253,12.2097425 C13.8213253,12.2683292 13.7639223,12.2975477 13.7352208,12.2975477 L12.5565461,12.2975477 C12.5276975,12.2975477 12.498996,12.3269159 12.498996,12.3269159 C12.2115395,12.5609633 11.7802811,12.8243789 11.0615663,13.2340366 C10.9466131,12.8243789 10.83166,12.2975477 10.8029585,12.2975477 L10.4579518,12.2975477 C10.4004016,12.2975477 10.3717001,12.2683292 10.3717001,12.2097425 L10.3717001,4.01553927 C10.3717001,3.95695252 10.4292503,3.89851561 10.4579518,3.89851561 L13.7352208,3.89851561 C13.7639223,3.89851561 13.8213253,3.95695252 13.8213253,3.98632081 L13.8213253,12.2097425 L13.8213253,12.2097425" id="Shape"></path>
            </g>
        </g>
    </g>
</svg>

<svg xmlns="http://www.w3.org/2000/svg" viewBox="0 0 16 16">
    <path d="M5.542 8.786h2.961c0-.82-.201-1.112-.316-1.142H5.628c.03-.058.115-1.902.144-3.511h2.415c.057-.615-.086-1.142-.345-1.171H3.559c.057-.263.115-.556.23-.878.143-.44.287-.878.373-1.054-.057-.058-.172-.029-.43.059a1.715 1.715 0 0 0-.72.38 1.405 1.405 0 0 0-.345.469c-.258.673-.805 2.604-1.523 3.95 1.12-.087 1.667-.731 1.84-1.258.086-.176.115-.38.172-.527h1.495c0 .673-.029 1.903-.144 3.541-1.293 0-1.897-.029-2.616-.029-.402.117-.604.761-.66 1.17h3.161c-.086.615-.115.937-.345 1.844a7.956 7.956 0 0 1-2.07 3.337 6.823 6.823 0 0 1-.948.848c-.029.03-.029.03-.029.059.316.293 1.466 0 1.696-.088.23-.088.431-.146.604-.292.604-.527 1.351-1.698 1.81-3.454 1.726 2.049 2.1 2.663 2.53 3.16h.058c.144-.497.23-1.316.058-1.726l-.115-.205c-.834-1.024-.834-1.024-1.783-2.048-.546.439-.66.556-.66.556s.114-.468.143-.673c.144-.527.144-.79.201-1.317m9.285-6.029H9.366c-.058 0-.173.088-.173.176v10.389c0 .058.058.146.173.146h.862c.057 0 .144.586.374 1.2 1.207-.79 1.724-1.112 1.983-1.2h2.242c.087 0 .144-.058.144-.146 0-6.936.029-3.307.029-10.419 0-.087-.115-.146-.173-.146m-1.006 9.453c0 .058-.057.088-.086.088h-1.178c-.03 0-.058.029-.058.029a11.33 11.33 0 0 1-1.437.907c-.115-.41-.23-.936-.259-.936h-.345c-.058 0-.086-.03-.086-.088V4.016c0-.059.057-.117.086-.117h3.277c.029 0 .086.058.086.087v8.224"/>
</svg>
